X: 30592
T: One Glass More
R: reel
M: 4/4
K: Dmajor
fe|:dBAF E2DE|FDFA d3e|fgfe dBAF|BFAF E2FG|
ABAF GFEF|DEFA d3e|fedc dBAF|1 GABd e2fe:|2 GBdf e2fg||
|:adcd bdcd|abag f2ef|gfed =cdec|^cea^g a2f=g|
adfa bdgb|abag f2ef|ge=ce agfe|1 fdec d2fg:|2 fdec d2||

